;FLAVOR:Marlin
;TIME:4306
;Filament used: 4.68123m
;Layer height: 0.2
;MINX:52.125
;MINY:42.125
;MINZ:0.2
;MAXX:167.875
;MAXY:177.873
;MAXZ:30.2
;Generated with Cura_SteamEngine 4.4.1
M140 S60
M105
M190 S60
M104 S205
M105
M109 S205
M82 ;absolute extrusion mode
M201 X2000.00 Y2000.00 Z100.00 E5000.00 ;Setup machine max acceleration
M203 X500.00 Y500.00 Z10.00 E50.00 ;Setup machine max feedrate
M204 P500.00 R1000.00 T500.00 ;Setup Print/Retract/Travel acceleration
M205 X8.00 Y8.00 Z0.40 E5.00 ;Setup Jerk
M220 S100 ;Reset Feedrate
M221 S100 ;Reset Flowrate

G28 ;Home

G92 E0 ;Reset Extruder
G1 Z2.0 F3000 ;Move Z Axis up
G1 X10.1 Y20 Z0.28 F5000.0 ;Move to start position
G1 X10.1 Y200.0 Z0.28 F1500.0 E15 ;Draw the first line
G1 X10.4 Y200.0 Z0.28 F5000.0 ;Move to side a little
G1 X10.4 Y20 Z0.28 F1500.0 E30 ;Draw the second line
G92 E0 ;Reset Extruder
G1 Z2.0 F3000 ;Move Z Axis up
G90 ; absolute xyz
G92 E0
G92 E0
G1 F1800 E-6
;LAYER_COUNT:150
;LAYER:0
M107
M204 S500
M205 X7 Y7
G1 F300 Z0.4
G0 F7500 X54.005 Y44.893 Z0.4
;TYPE:SKIRT
G1 F300 Z0.2
G1 F1800 E0
G1 F1500 X54.55 Y44.316 E0.0297
G1 X55.149 Y43.796 E0.05938
G1 X55.798 Y43.34 E0.08906
G1 X56.49 Y42.951 E0.11876
G1 X57.217 Y42.633 E0.14845
G1 X57.973 Y42.39 E0.17817
G1 X58.749 Y42.225 E0.20785
G1 X59.537 Y42.139 E0.23751
G1 X60 Y42.125 E0.25484
G1 X160 Y42.125 E3.99661
G1 X160.792 Y42.165 E4.02628
G1 X161.577 Y42.284 E4.05599
G1 X162.345 Y42.482 E4.08567
G1 X163.09 Y42.757 E4.11538
G1 X163.803 Y43.104 E4.14505
G1 X164.478 Y43.522 E4.17476
G1 X165.107 Y44.005 E4.20443
G1 X165.684 Y44.55 E4.23413
G1 X166.204 Y45.149 E4.26381
G1 X166.66 Y45.798 E4.29349
G1 X167.049 Y46.49 E4.32319
G1 X167.367 Y47.217 E4.35289
G1 X167.61 Y47.973 E4.3826
G1 X167.775 Y48.749 E4.41228
G1 X167.861 Y49.537 E4.44194
G1 X167.875 Y50 E4.45928
G1 X167.875 Y90 E5.95598
G1 X167.835 Y90.792 E5.98565
G1 X167.716 Y91.577 E6.01536
G1 X167.518 Y92.345 E6.04504
G1 X167.243 Y93.09 E6.07475
G1 X166.896 Y93.803 E6.10442
G1 X166.478 Y94.478 E6.13413
G1 X165.995 Y95.107 E6.16381
G1 X165.568 Y95.568 E6.18732
G1 X126.982 Y134.154 E8.22916
G1 X126.394 Y134.687 E8.25885
G1 X125.755 Y135.157 E8.28853
G1 X125.375 Y135.381 E8.30504
G1 X125.048 Y135.905 E8.32815
G1 X124.562 Y136.532 E8.35783
G1 X124.155 Y136.972 E8.38026
G1 X85.569 Y175.568 E10.42236
G1 X84.981 Y176.1 E10.45203
G1 X84.342 Y176.57 E10.48171
G1 X83.658 Y176.974 E10.51144
G1 X82.938 Y177.306 E10.54111
G1 X82.188 Y177.565 E10.5708
G1 X81.415 Y177.747 E10.60051
G1 X80.629 Y177.85 E10.63017
G1 X79.836 Y177.873 E10.65986
G1 X79.044 Y177.817 E10.68957
G1 X78.262 Y177.681 E10.71927
G1 X77.498 Y177.467 E10.74895
G1 X76.76 Y177.177 E10.77862
G1 X76.054 Y176.815 E10.80831
G1 X75.388 Y176.383 E10.83801
G1 X74.769 Y175.887 E10.86769
G1 X74.203 Y175.33 E10.89741
G1 X73.696 Y174.72 E10.92709
G1 X73.253 Y174.062 E10.95677
G1 X72.879 Y173.362 E10.98646
G1 X72.577 Y172.628 E11.01616
G1 X72.35 Y171.868 E11.04584
G1 X72.201 Y171.089 E11.07552
G1 X72.125 Y170 E11.11636
G1 X72.125 Y157.875 E11.57005
G1 X60 Y157.875 E12.02374
G1 X59.208 Y157.835 E12.05341
G1 X58.423 Y157.716 E12.08312
G1 X57.655 Y157.518 E12.1128
G1 X56.91 Y157.243 E12.14251
G1 X56.197 Y156.896 E12.17218
G1 X55.522 Y156.478 E12.20189
G1 X54.893 Y155.995 E12.23157
G1 X54.316 Y155.45 E12.26126
G1 X53.796 Y154.851 E12.29094
G1 X53.34 Y154.202 E12.32062
G1 X52.951 Y153.51 E12.35033
G1 X52.633 Y152.783 E12.38002
G1 X52.39 Y152.027 E12.40973
G1 X52.225 Y151.251 E12.43942
G1 X52.139 Y150.463 E12.46908
G1 X52.125 Y150 E12.48641
G1 X52.125 Y50 E16.22817
G1 X52.165 Y49.208 E16.25785
G1 X52.284 Y48.423 E16.28756
G1 X52.482 Y47.655 E16.31723
G1 X52.757 Y46.91 E16.34695
G1 X53.104 Y46.197 E16.37662
G1 X53.522 Y45.522 E16.40632
G1 X53.572 Y45.456 E16.40942
G0 F1350 X54.005 Y44.893
G0 F7500 X54.451 Y45.067
G1 F1500 X54.992 Y44.518 E16.43826
G1 X55.587 Y44.029 E16.46708
G1 X56.229 Y43.604 E16.49589
G1 X56.912 Y43.247 E16.52473
G1 X57.629 Y42.964 E16.55357
G1 X58.371 Y42.756 E16.5824
G1 X59.13 Y42.626 E16.61122
G1 X60 Y42.575 E16.64383
G1 X160 Y42.575 E20.38559
G1 X160.769 Y42.615 E20.4144
G1 X161.531 Y42.734 E20.44326
G1 X162.275 Y42.932 E20.47207
G1 X162.995 Y43.206 E20.5009
G1 X163.683 Y43.553 E20.52973
G1 X164.332 Y43.969 E20.55857
G1 X164.933 Y44.451 E20.5874
G1 X165.482 Y44.992 E20.61624
G1 X165.971 Y45.587 E20.64506
G1 X166.396 Y46.229 E20.67387
G1 X166.753 Y46.912 E20.7027
G1 X167.036 Y47.629 E20.73155
G1 X167.244 Y48.371 E20.76038
G1 X167.374 Y49.13 E20.78919
G1 X167.425 Y50 E20.8218
G1 X167.425 Y90 E22.31851
G1 X167.385 Y90.769 E22.34732
G1 X167.266 Y91.531 E22.37618
G1 X167.068 Y92.275 E22.40499
G1 X166.794 Y92.995 E22.43381
G1 X166.447 Y93.683 E22.46264
G1 X166.031 Y94.332 E22.49149
G1 X165.549 Y94.933 E22.52032
G1 X165.25 Y95.25 E22.53662
G1 X126.664 Y133.836 E24.57846
G1 X126.092 Y134.352 E24.60728
G1 X125.469 Y134.806 E24.63613
G1 X125.051 Y135.049 E24.65422
G1 X125.02 Y135.11 E24.65678
G1 X124.601 Y135.757 E24.68562
G1 X124.118 Y136.357 E24.71444
G1 X123.837 Y136.654 E24.72974
G1 X85.251 Y175.25 E26.77185
G1 X84.679 Y175.765 E26.80064
G1 X84.056 Y176.219 E26.82949
G1 X83.39 Y176.606 E26.85831
G1 X82.687 Y176.922 E26.88715
G1 X81.955 Y177.163 E26.91599
G1 X81.202 Y177.327 E26.94482
G1 X80.437 Y177.412 E26.97362
G1 X79.666 Y177.417 E27.00247
G1 X78.899 Y177.343 E27.03131
G1 X78.144 Y177.189 E27.06014
G1 X77.409 Y176.958 E27.08897
G1 X76.702 Y176.652 E27.11779
G1 X76.031 Y176.275 E27.14659
G1 X75.402 Y175.83 E27.17542
G1 X74.822 Y175.322 E27.20427
G1 X74.299 Y174.757 E27.23308
G1 X73.837 Y174.14 E27.26192
G1 X73.441 Y173.479 E27.29075
G1 X73.115 Y172.781 E27.31958
G1 X72.864 Y172.053 E27.34839
G1 X72.69 Y171.302 E27.37724
G1 X72.594 Y170.538 E27.40605
G1 X72.575 Y170 E27.42619
G1 X72.575 Y157.425 E27.89672
G1 X60 Y157.425 E28.36725
G1 X59.231 Y157.385 E28.39606
G1 X58.469 Y157.266 E28.42492
G1 X57.725 Y157.068 E28.45372
G1 X57.005 Y156.794 E28.48255
G1 X56.317 Y156.447 E28.51138
G1 X55.668 Y156.031 E28.54023
G1 X55.067 Y155.549 E28.56905
G1 X54.518 Y155.008 E28.59789
G1 X54.029 Y154.413 E28.62671
G1 X53.604 Y153.771 E28.65552
G1 X53.247 Y153.088 E28.68436
G1 X52.964 Y152.371 E28.7132
G1 X52.756 Y151.629 E28.74203
G1 X52.626 Y150.87 E28.77085
G1 X52.575 Y150 E28.80346
G1 X52.575 Y50 E32.54522
G1 X52.615 Y49.231 E32.57403
G1 X52.734 Y48.469 E32.60289
G1 X52.932 Y47.725 E32.6317
G1 X53.206 Y47.005 E32.66053
G1 X53.553 Y46.317 E32.68936
G1 X53.969 Y45.668 E32.7182
G1 X54.006 Y45.621 E32.72044
G0 F1350 X54.451 Y45.067
G0 F7500 X54.895 Y45.247
G1 F1500 X55.433 Y44.728 E32.74841
G1 X56.022 Y44.27 E32.77633
G1 X56.658 Y43.878 E32.80428
G1 X57.331 Y43.556 E32.8322
G1 X58.036 Y43.307 E32.86018
G1 X58.762 Y43.136 E32.88809
G1 X59.503 Y43.043 E32.91603
G1 X60 Y43.025 E32.93464
G1 X160 Y43.025 E36.6764
G1 X160.746 Y43.065 E36.70436
G1 X161.483 Y43.184 E36.73229
G1 X162.203 Y43.382 E36.76023
G1 X162.898 Y43.655 E36.78817
G1 X163.559 Y44.002 E36.81611
G1 X164.18 Y44.416 E36.84403
G1 X164.753 Y44.895 E36.87198
G1 X165.272 Y45.433 E36.89995
G1 X165.73 Y46.022 E36.92787
G1 X166.122 Y46.658 E36.95582
G1 X166.444 Y47.331 E36.98374
G1 X166.693 Y48.036 E37.01171
G1 X166.864 Y48.762 E37.03962
G1 X166.957 Y49.503 E37.06757
G1 X166.975 Y50 E37.08617
G1 X166.975 Y90 E38.58288
G1 X166.935 Y90.746 E38.61083
G1 X166.816 Y91.483 E38.63877
G1 X166.618 Y92.203 E38.66671
G1 X166.345 Y92.898 E38.69465
G1 X165.998 Y93.559 E38.72258
G1 X165.584 Y94.18 E38.75051
G1 X164.932 Y94.932 E38.78775
G1 X126.346 Y133.518 E40.82959
G1 X125.791 Y134.017 E40.85751
G1 X125.185 Y134.454 E40.88547
G1 X124.709 Y134.725 E40.90597
G1 X124.572 Y134.985 E40.91696
G1 X124.155 Y135.604 E40.94489
G1 X123.519 Y136.335 E40.98114
G1 X84.933 Y174.931 E43.02325
G1 X84.377 Y175.43 E43.0512
G1 X83.772 Y175.867 E43.07913
G1 X83.123 Y176.237 E43.10708
G1 X82.438 Y176.535 E43.13503
G1 X81.726 Y176.758 E43.16295
G1 X80.993 Y176.904 E43.19092
G1 X80.249 Y176.971 E43.21887
G1 X79.503 Y176.957 E43.24679
G1 X78.762 Y176.864 E43.27473
G1 X78.035 Y176.693 E43.30267
G1 X77.331 Y176.444 E43.33062
G1 X76.657 Y176.122 E43.35857
G1 X76.022 Y175.729 E43.38651
G1 X75.432 Y175.271 E43.41446
G1 X74.895 Y174.753 E43.44237
G1 X74.416 Y174.18 E43.47032
G1 X74.001 Y173.559 E43.49827
G1 X73.655 Y172.897 E43.52622
G1 X73.382 Y172.202 E43.55415
G1 X73.184 Y171.482 E43.5821
G1 X73.065 Y170.745 E43.61003
G1 X73.025 Y170 E43.63795
G1 X73.025 Y156.975 E44.12531
G1 X60 Y156.975 E44.61268
G1 X59.254 Y156.935 E44.64063
G1 X58.517 Y156.816 E44.66856
G1 X57.797 Y156.618 E44.6965
G1 X57.102 Y156.345 E44.72444
G1 X56.441 Y155.998 E44.75238
G1 X55.82 Y155.584 E44.7803
G1 X55.247 Y155.105 E44.80825
G1 X54.728 Y154.567 E44.83622
G1 X54.27 Y153.978 E44.86414
G1 X53.878 Y153.342 E44.89209
G1 X53.556 Y152.669 E44.92001
G1 X53.307 Y151.964 E44.94799
G1 X53.136 Y151.238 E44.97589
G1 X53.043 Y150.497 E45.00384
G1 X53.025 Y150 E45.02245
G1 X53.025 Y50 E48.76421
G1 X53.065 Y49.254 E48.79217
G1 X53.184 Y48.517 E48.8201
G1 X53.382 Y47.797 E48.84804
G1 X53.655 Y47.102 E48.87598
G1 X54.002 Y46.441 E48.90391
G1 X54.416 Y45.82 E48.93184
G1 X54.439 Y45.793 E48.93317
G0 F1350 X54.895 Y45.247
G0 F7500 X54.863 Y45.977
G1 F1500 X55.339 Y45.433 E48.96022
G1 X55.872 Y44.946 E48.98723
G1 X56.456 Y44.521 E49.01426
G1 X57.083 Y44.163 E49.04127
G1 X57.746 Y43.877 E49.06829
G1 X58.437 Y43.665 E49.09533
G1 X59.147 Y43.531 E49.12237
G1 X60 Y43.475 E49.15436
G1 X160 Y43.475 E52.89612
G1 X160.721 Y43.515 E52.92314
G1 X161.433 Y43.634 E52.95015
G1 X162.128 Y43.832 E52.97719
G1 X162.797 Y44.105 E53.00423
G1 X163.431 Y44.45 E53.03124
G1 X164.023 Y44.863 E53.05824
G1 X164.567 Y45.339 E53.08529
G1 X165.054 Y45.872 E53.11231
G1 X165.479 Y46.456 E53.13933
G1 X165.837 Y47.083 E53.16635
G1 X166.123 Y47.746 E53.19337
G1 X166.335 Y48.437 E53.22041
G1 X166.469 Y49.147 E53.24745
G1 X166.525 Y50 E53.27943
G1 X166.525 Y90 E54.77614
G1 X166.485 Y90.721 E54.80316
G1 X166.366 Y91.433 E54.83017
G1 X166.168 Y92.128 E54.85721
G1 X165.895 Y92.797 E54.88425
G1 X165.55 Y93.431 E54.91125
G1 X165.137 Y94.023 E54.93826
G1 X164.614 Y94.614 E54.96779
G1 X126.028 Y133.2 E57.00963
G1 X125.49 Y133.682 E57.03666
G1 X124.902 Y134.101 E57.06367
G1 X124.377 Y134.393 E57.08615
G1 X124.124 Y134.855 E57.10586
G1 X123.709 Y135.446 E57.13288
G1 X123.2 Y136.017 E57.1615
G1 X84.614 Y174.613 E59.20361
G1 X84.076 Y175.095 E59.23064
G1 X83.488 Y175.514 E59.25765
G1 X82.858 Y175.866 E59.28465
G1 X82.192 Y176.146 E59.31169
G1 X81.499 Y176.35 E59.33872
G1 X80.788 Y176.477 E59.36574
G1 X80.067 Y176.525 E59.39278
G1 X79.346 Y176.492 E59.41979
G1 X78.632 Y176.38 E59.44683
G1 X77.936 Y176.19 E59.47383
G1 X77.264 Y175.924 E59.50087
G1 X76.626 Y175.585 E59.5279
G1 X76.03 Y175.178 E59.55491
G1 X75.482 Y174.708 E59.58192
G1 X74.989 Y174.18 E59.60895
G1 X74.558 Y173.6 E59.63599
G1 X74.194 Y172.977 E59.66299
G1 X73.9 Y172.317 E59.69002
G1 X73.681 Y171.628 E59.71707
G1 X73.54 Y170.92 E59.74409
G1 X73.475 Y170 E59.7786
G1 X73.475 Y156.525 E60.2828
G1 X60 Y156.525 E60.787
G1 X59.279 Y156.485 E60.81402
G1 X58.567 Y156.366 E60.84103
G1 X57.872 Y156.168 E60.86807
G1 X57.203 Y155.895 E60.89511
G1 X56.569 Y155.55 E60.92212
G1 X55.977 Y155.137 E60.94913
G1 X55.433 Y154.661 E60.97617
G1 X54.946 Y154.128 E61.00319
G1 X54.521 Y153.544 E61.03021
G1 X54.163 Y152.917 E61.05723
G1 X53.877 Y152.254 E61.08425
G1 X53.665 Y151.563 E61.11129
G1 X53.531 Y150.853 E61.13833
G1 X53.475 Y150 E61.17031
G1 X53.475 Y50 E64.91208
G1 X53.515 Y49.279 E64.9391
G1 X53.634 Y48.567 E64.96611
G1 X53.832 Y47.872 E64.99315
G1 X54.105 Y47.203 E65.02019
G1 X54.45 Y46.569 E65.04719
G1 X54.456 Y46.56 E65.0476
G0 F1350 X54.863 Y45.977
G0 F7500 X55.309 Y46.139
G1 F1500 X55.782 Y45.628 E65.07365
G1 X56.311 Y45.173 E65.09976
G1 X56.888 Y44.783 E65.12582
G1 X57.506 Y44.461 E65.15189
G1 X58.157 Y44.211 E65.17799
G1 X58.832 Y44.038 E65.20406
G1 X59.522 Y43.944 E65.23012
G1 X60 Y43.925 E65.24802
G1 X160 Y43.925 E68.98978
G1 X160.696 Y43.965 E69.01587
G1 X161.382 Y44.084 E69.04192
G1 X162.051 Y44.282 E69.06803
G1 X162.692 Y44.554 E69.09408
G1 X163.298 Y44.898 E69.12015
G1 X163.861 Y45.309 E69.14624
G1 X164.372 Y45.782 E69.17229
G1 X164.827 Y46.311 E69.1984
G1 X165.217 Y46.888 E69.22446
G1 X165.539 Y47.506 E69.25053
G1 X165.789 Y48.157 E69.27663
G1 X165.962 Y48.832 E69.3027
G1 X166.056 Y49.522 E69.32876
G1 X166.075 Y50 E69.34666
G1 X166.075 Y90 E70.84336
G1 X166.035 Y90.696 E70.86945
G1 X165.916 Y91.382 E70.8955
G1 X165.718 Y92.051 E70.92161
G1 X165.446 Y92.692 E70.94766
G1 X165.102 Y93.298 E70.97373
G1 X164.691 Y93.861 E70.99982
G1 X164.296 Y94.296 E71.0218
G1 X125.71 Y132.882 E73.06364
G1 X125.189 Y133.345 E73.08972
G1 X124.62 Y133.746 E73.11577
G1 X124.046 Y134.059 E73.14023
G1 X124.022 Y134.115 E73.14251
G1 X123.676 Y134.72 E73.16859
G1 X123.263 Y135.281 E73.19465
G1 X122.882 Y135.699 E73.21582
G1 X84.296 Y174.295 E75.25792
G1 X83.776 Y174.759 E75.284
G1 X83.206 Y175.16 E75.31007
G1 X82.594 Y175.493 E75.33614
G1 X81.948 Y175.754 E75.36221
G1 X81.276 Y175.939 E75.38829
G1 X80.588 Y176.046 E75.41435
G1 X79.891 Y176.074 E75.44045
G1 X79.197 Y176.022 E75.46649
G1 X78.512 Y175.89 E75.49259
G1 X77.848 Y175.681 E75.51864
G1 X77.211 Y175.397 E75.54474
G1 X76.611 Y175.042 E75.57082
G1 X76.056 Y174.621 E75.59689
G1 X75.553 Y174.139 E75.62295
G1 X75.108 Y173.602 E75.64905
G1 X74.728 Y173.018 E75.67512
G1 X74.417 Y172.395 E75.70117
G1 X74.179 Y171.74 E75.72725
G1 X74.019 Y171.062 E75.75332
G1 X73.936 Y170.37 E75.7794
G1 X73.925 Y170 E75.79325
G1 X73.925 Y156.075 E76.31429
G1 X60 Y156.075 E76.83533
G1 X59.304 Y156.035 E76.86141
G1 X58.618 Y155.916 E76.88747
G1 X57.949 Y155.718 E76.91357
G1 X57.308 Y155.446 E76.93963
G1 X56.702 Y155.102 E76.9657
G1 X56.139 Y154.691 E76.99178
G1 X55.628 Y154.218 E77.01784
G1 X55.173 Y153.689 E77.04394
G1 X54.783 Y153.112 E77.07
G1 X54.461 Y152.494 E77.09608
G1 X54.211 Y151.843 E77.12217
G1 X54.038 Y151.168 E77.14825
G1 X53.944 Y150.478 E77.1743
G1 X53.925 Y150 E77.1922
G1 X53.925 Y50 E80.93397
G1 X53.965 Y49.304 E80.96005
G1 X54.084 Y48.618 E80.9861
G1 X54.282 Y47.949 E81.01221
G1 X54.554 Y47.308 E81.03827
G1 X54.892 Y46.714 E81.06384
G0 F1350 X54.898 Y46.702
G0 X55.309 Y46.139
G0 F7500 X55.755 Y46.309
G1 F1500 X56.224 Y45.83 E81.08892
G1 X56.747 Y45.411 E81.114
G1 X57.316 Y45.056 E81.13909
G1 X57.924 Y44.772 E81.1642
G1 X58.561 Y44.562 E81.1893
G1 X59.218 Y44.43 E81.21437
G1 X60 Y44.375 E81.2437
G1 X160 Y44.375 E84.98547
G1 X160.669 Y44.415 E85.01055
G1 X161.329 Y44.534 E85.03564
G1 X161.97 Y44.731 E85.06073
G1 X162.583 Y45.003 E85.08583
G1 X163.159 Y45.346 E85.11091
G1 X163.691 Y45.755 E85.13602
G1 X164.17 Y46.224 E85.1611
G1 X164.589 Y46.747 E85.18618
G1 X164.944 Y47.316 E85.21127
G1 X165.228 Y47.924 E85.23638
G1 X165.438 Y48.561 E85.26148
G1 X165.57 Y49.218 E85.28655
G1 X165.625 Y50 E85.31589
G1 X165.625 Y90 E86.81259
G1 X165.585 Y90.669 E86.83767
G1 X165.466 Y91.329 E86.86276
G1 X165.269 Y91.97 E86.88786
G1 X164.997 Y92.583 E86.91295
G1 X164.654 Y93.159 E86.93803
G1 X164.245 Y93.691 E86.96314
G1 X163.977 Y93.977 E86.97781
G1 X125.391 Y132.563 E89.01965
G1 X124.89 Y133.009 E89.04475
G1 X124.339 Y133.391 E89.06983
G1 X123.746 Y133.705 E89.09494
G1 X123.7 Y133.723 E89.09679
G1 X123.574 Y134.005 E89.10835
G1 X123.229 Y134.58 E89.13344
G1 X122.818 Y135.11 E89.15853
G1 X122.564 Y135.381 E89.17243
G1 X83.978 Y173.977 E91.21453
G1 X83.477 Y174.422 E91.23961
G1 X82.926 Y174.804 E91.26469
G1 X82.333 Y175.118 E91.2898
G1 X81.708 Y175.36 E91.31488
G1 X81.058 Y175.525 E91.33997
G1 X80.393 Y175.611 E91.36506
G1 X79.722 Y175.618 E91.39017
G1 X79.056 Y175.545 E91.41524
G1 X78.403 Y175.393 E91.44033
G1 X77.772 Y175.165 E91.46543
G1 X77.173 Y174.863 E91.49053
G1 X76.615 Y174.492 E91.5156
G1 X76.104 Y174.058 E91.54069
G1 X75.649 Y173.565 E91.56579
G1 X75.256 Y173.022 E91.59087
G1 X74.93 Y172.436 E91.61596
G1 X74.676 Y171.816 E91.64103
G1 X74.498 Y171.169 E91.66614
G1 X74.398 Y170.506 E91.69123
G1 X74.375 Y170 E91.71019
G1 X74.375 Y155.625 E92.24806
G1 X60 Y155.625 E92.78594
G1 X59.331 Y155.585 E92.81102
G1 X58.671 Y155.466 E92.83611
G1 X58.03 Y155.269 E92.86121
G1 X57.417 Y154.997 E92.8863
G1 X56.841 Y154.654 E92.91138
